src/icons/orientation-tool.svg

<svg width="21" height="21" viewBox="0 0 21 21" fill="none" xmlns="http://www.w3.org/2000/svg">
<path d="M11.87 7.12001L13.56 8.81002L16.55 5.82001L12.82 2.09001L11.87 1.14001L4.21001 8.80001L3.26001 9.75001L7.25001 13.74V17.18H14.8V13.63L10.08 8.91001L11.87 7.12001ZM10.96 4.13001L11.87 3.22001L14.47 5.82001L13.56 6.73001L10.96 4.13001ZM8.71001 14.37H12.45L11.11 13.03L11.07 12.99H8.57001L5.32001 9.74001L9.91001 5.15001L10.83 6.07001L8.00001 8.90001L13.33 14.23V15.71H8.70001V14.36L8.71001 14.37Z" fill="currentColor" fill-opacity="0.8"/>
</svg>

<svg xmlns="http://www.w3.org/2000/svg" width="21" height="21" fill="none"><path fill="currentColor" fill-opacity=".8" d="m11.87 7.12 1.69 1.69 2.99-2.99-3.73-3.73-.95-.95L4.21 8.8l-.95.95 3.99 3.99v3.44h7.55v-3.55l-4.72-4.72zm-.91-2.99.91-.91 2.6 2.6-.91.91zM8.71 14.37h3.74l-1.34-1.34-.04-.04h-2.5L5.32 9.74l4.59-4.59.92.92L8 8.9l5.33 5.33v1.48H8.7v-1.35z"/></svg>
